site/img/u2.svg

<?xml version="1.0" encoding="UTF-8" standalone="no"?>
<svg
   xml:space="preserve"
   width="300"
   height="300"
   version="1.1"
   id="svg16"
   sodipodi:docname="u2.svg"
   viewBox="0 0 300 300"
   inkscape:version="1.2.2 (b0a8486541, 2022-12-01)"
   xmlns:inkscape="http://www.inkscape.org/namespaces/inkscape"
   xmlns:sodipodi="http://sodipodi.sourceforge.net/DTD/sodipodi-0.dtd"
   xmlns="http://www.w3.org/2000/svg"
   xmlns:svg="http://www.w3.org/2000/svg"><defs
   id="defs20" /><sodipodi:namedview
   id="namedview18"
   pagecolor="#ffffff"
   bordercolor="#666666"
   borderopacity="1.0"
   inkscape:showpageshadow="2"
   inkscape:pageopacity="0.0"
   inkscape:pagecheckerboard="0"
   inkscape:deskcolor="#d1d1d1"
   showgrid="false"
   inkscape:zoom="1.732269"
   inkscape:cx="66.964196"
   inkscape:cy="68.118752"
   inkscape:window-width="2560"
   inkscape:window-height="1440"
   inkscape:window-x="0"
   inkscape:window-y="0"
   inkscape:window-maximized="1"
   inkscape:current-layer="svg16" />
  <path
   d="M 0,0 H 300 V 300 H 0 V 0"
   style="fill:#9e51ae;fill-opacity:1;fill-rule:evenodd;stroke:none;stroke-width:0.275249"
   id="path12"
   inkscape:label="bg" />
  <path
   d="m 261.7827,118.34793 c 0,11.6948 -2.75774,21.40065 -8.22529,29.0881 -5.47802,7.68772 -15.76766,16.31404 -30.84722,25.91227 -13.95046,8.80578 -23.44465,16.78169 -28.55713,23.89083 l -0.10761,0.21829 h 67.73725 v 26.63259 H 156.24183 c 0,-14.11315 3.59119,-26.20046 10.73033,-36.26964 7.13943,-10.06918 20.58454,-22.01446 40.3359,-35.83612 8.84349,-6.13614 15.07954,-11.76472 18.70292,-16.89124 3.58595,-5.08689 5.39764,-10.78978 5.39764,-17.06877 0,-6.82206 -1.98921,-12.3433 -5.94043,-16.49351 -3.95148,-4.150211 -9.20902,-6.244585 -15.69252,-6.244585 -6.96189,0 -12.35925,2.599732 -16.27303,7.832775 -3.88157,5.19616 -5.69326,12.30558 -5.40287,21.25642 H 158.274 c -0.50536,-16.70957 3.9135,-29.953754 13.23015,-39.770254 9.27343,-9.780993 22.10584,-14.688142 38.48649,-14.688142 15.18717,0 27.65406,4.510239 37.36843,13.53347 9.60154,9.021855 14.42363,20.642616 14.42363,34.897516 M 37.622211,73.495188 37.386597,178.47702 c 0,15.47426 3.751376,24.27041 10.727301,32.35779 8.264919,9.49611 22.215667,17.29256 47.127955,17.29256 38.452087,0 57.032537,-20.2815 57.032537,-50.41169 v -0.002 L 152.16153,73.495188 h -29.31325 v 99.648872 c 0,12.24971 -1.75664,16.17834 -4.57052,20.39847 -4.16094,6.33074 -11.6659,11.02072 -23.095086,11.02072 -18.46319,0 -28.487228,-10.84539 -28.487228,-29.01626 L 66.930784,73.377932 37.622211,73.495188"
   style="fill:#ffffff;fill-opacity:1;fill-rule:evenodd;stroke:none;stroke-width:0.275249"
   id="path14"
   inkscape:label="u2" />
</svg>

<?xml version="1.0" encoding="UTF-8"?>
<svg width="300" height="300" version="1.1" viewBox="0 0 300 300" xml:space="preserve" xmlns="http://www.w3.org/2000/svg">
  <path d="m0 0h300v300h-300v-300" fill="#9e51ae" fill-rule="evenodd"/>
  <path d="m261.78 118.35c0 11.695-2.7577 21.401-8.2253 29.088-5.478 7.6877-15.768 16.314-30.847 25.912-13.95 8.8058-23.445 16.782-28.557 23.891l-0.10761 0.21829h67.737v26.633h-105.54c0-14.113 3.5912-26.2 10.73-36.27 7.1394-10.069 20.585-22.014 40.336-35.836 8.8435-6.1361 15.08-11.765 18.703-16.891 3.586-5.0869 5.3976-10.79 5.3976-17.069 0-6.8221-1.9892-12.343-5.9404-16.494-3.9515-4.1502-9.209-6.2446-15.693-6.2446-6.9619 0-12.359 2.5997-16.273 7.8328-3.8816 5.1962-5.6933 12.306-5.4029 21.256h-29.826c-0.50536-16.71 3.9135-29.954 13.23-39.77 9.2734-9.781 22.106-14.688 38.486-14.688 15.187 0 27.654 4.5102 37.368 13.533 9.6015 9.0219 14.424 20.643 14.424 34.898m-224.16-44.853-0.23561 104.98c0 15.474 3.7514 24.27 10.727 32.358 8.2649 9.4961 22.216 17.293 47.128 17.293 38.452 0 57.033-20.282 57.033-50.412v-2e-3l-0.11286-104.22h-29.313v99.649c0 12.25-1.7566 16.178-4.5705 20.398-4.1609 6.3307-11.666 11.021-23.095 11.021-18.463 0-28.487-10.845-28.487-29.016l0.23534-102.17-29.309 0.11726" fill="#fff" fill-rule="evenodd"/>
</svg>
